X: 1
%
T: Kitchen Girl
R: reel
Z: SPUDS
M: 4/4
L: 1/8
K: A mix
|:"A"L[a2c2]z2"G"L[g2B2]z2|"A"efed cAcd|edef gaba|"G"g2e2e4|
K:Ador
|:"Am"ABcA "Em"BAG2|"Am"ABAGE2(A2|A3)Bc2d2|"Em"e4e2A2 |

